src/assets/Traced Image (1).svg

<svg width="81" height="80" viewBox="0 0 81 80" fill="none" xmlns="http://www.w3.org/2000/svg">
<path fill-rule="evenodd" clip-rule="evenodd" d="M36.1985 1.51528C30.9665 2.24276 26.3761 4.15606 22.4325 7.25281C13.6774 14.1281 9.87223 25.4765 12.7316 36.185C13.1439 37.7291 14.0284 40.1778 14.4759 41.0141C14.6075 41.2599 14.4742 41.3484 13.411 41.7216C11.0185 42.5611 9.14696 43.8656 8.44623 45.1818C8.1763 45.6887 8.10689 46.091 8.10532 47.1563C8.10359 48.3635 8.15112 48.5787 8.59167 49.3598C9.0127 50.106 9.59805 50.6851 10.5811 51.3272C10.7203 51.4182 10.8577 51.8171 10.9066 52.2716L10.9912 53.0586H9.38982C7.91864 53.0586 7.70333 53.099 6.73724 53.5568C5.27267 54.2506 4.36246 55.1422 3.65465 56.5764C3.06725 57.7666 3.06678 57.769 3.07906 59.7414C3.09007 61.5295 3.13839 61.8538 3.59232 63.1857C4.15013 64.822 4.6091 65.69 5.62178 67.0238C6.77391 68.5411 8.75457 70.1031 10.3545 70.7558C10.6987 70.8964 10.8449 71.0445 10.7873 71.1946C10.7395 71.3193 10.6553 72.0058 10.6005 72.7203C10.4611 74.5328 10.7722 75.4287 11.9454 76.5947C12.6501 77.2949 13.0603 77.5528 14.0057 77.8902C17.0833 78.9885 19.66 79.4204 23.1347 79.4204C26.6093 79.4204 29.186 78.9885 32.2636 77.8902C34.3269 77.1539 35.7264 75.392 35.7263 73.5313C35.7261 73.1787 35.4707 71.1197 35.1586 68.9555C34.6848 65.6719 34.5871 64.5387 34.5683 62.1088C34.5559 60.5073 34.6056 58.5736 34.6787 57.8118L34.8115 56.4264L35.9378 56.5526C36.5573 56.6219 38.162 56.6787 39.5038 56.6787C40.8456 56.6787 42.4502 56.6219 43.0697 56.5526L44.196 56.4264L44.3289 57.8118C44.4019 58.5736 44.4521 60.5073 44.4403 62.1088C44.4224 64.5458 44.3262 65.6623 43.8502 68.9555C43.5373 71.1197 43.2814 73.1787 43.2813 73.5313C43.2811 75.392 44.6807 77.1539 46.744 77.8902C49.8215 78.9885 52.3982 79.4204 55.8729 79.4204C59.3475 79.4204 61.9243 78.9885 65.0018 77.8902C65.9473 77.5528 66.3574 77.2949 67.0621 76.5947C68.2353 75.4287 68.5465 74.5328 68.4071 72.7203C68.3523 72.0058 68.2689 71.3213 68.222 71.199C68.165 71.0506 68.3598 70.8762 68.8084 70.6744C72.9178 68.8252 75.7385 64.6542 75.9711 60.0824C76.0448 58.6337 76.0103 58.275 75.7125 57.4C74.7224 54.4906 72.2333 52.8168 69.2052 53.0244C67.9904 53.1077 67.9649 53.102 68.0542 52.7693C68.1044 52.5822 68.1464 52.2107 68.1475 51.9439C68.1494 51.538 68.2739 51.3786 68.912 50.9651C70.6428 49.8435 71.3999 47.6496 70.7322 45.69C70.2094 44.1554 68.2744 42.6559 65.6205 41.7283L64.4294 41.312L65.1008 39.6304C65.9062 37.6129 66.4705 35.701 66.8407 33.7361C67.2252 31.6946 67.2252 26.4171 66.8407 24.3755C65.5255 17.3927 61.8882 11.3728 56.4263 7.13917C53.0563 4.52688 49.2823 2.80167 44.9448 1.89035C43.4124 1.56832 42.4823 1.47971 40.1334 1.43217C38.5319 1.39959 36.7612 1.43705 36.1985 1.51528ZM36.7769 4.0388C28.1839 5.03747 20.8438 10.1649 16.9915 17.8597C13.6129 24.6086 13.4881 32.746 16.6591 39.513L17.2623 40.7999L18.5065 40.648C19.1908 40.5644 19.7729 40.4793 19.7999 40.4585C19.827 40.4379 19.5697 39.8646 19.228 39.1847C18.4117 37.5611 17.7346 35.6167 17.2833 33.6016C16.7978 31.4326 16.7564 26.9011 17.2029 24.8062C18.1536 20.3467 20.1217 16.5549 23.0923 13.4598C25.5321 10.9181 27.9229 9.28872 31.0831 8.0146C33.9356 6.86436 36.3907 6.39249 39.5275 6.39154C45.4179 6.38965 50.8672 8.58201 55.121 12.6648C57.882 15.3149 59.812 18.3359 60.9728 21.8251C61.9176 24.6648 62.0909 25.7957 62.0816 29.0558C62.0747 31.4443 62.0108 32.2558 61.7264 33.5712C61.3025 35.5314 60.6053 37.5423 59.7796 39.1847C59.4379 39.8646 59.1805 40.4379 59.2076 40.4585C59.2347 40.4793 59.8167 40.5644 60.5011 40.648L61.7453 40.7999L62.339 39.5316C65.5173 32.7422 65.3981 24.6414 62.0206 17.8842C59.5171 12.8754 55.6903 9.04192 50.6999 6.54359C46.4691 4.42567 41.3588 3.50633 36.7769 4.0388ZM36.4346 9.14627C29.2144 10.3101 23.0128 15.4189 20.5737 22.2124C18.5875 27.7444 19.1732 34.0972 22.1369 39.1685L22.8498 40.3883H23.754C25.7706 40.3883 28.2431 41.3681 29.841 42.8002C30.907 43.7558 31.4558 44.0019 32.8845 44.1648C33.5645 44.2423 34.3785 44.4133 34.6933 44.5449C36.2303 45.1871 37.4531 46.5209 37.9338 48.0791C38.1944 48.9238 38.2385 48.9731 38.8556 49.1067C39.2354 49.189 39.7721 49.189 40.1519 49.1067C40.7691 48.9731 40.8131 48.9238 41.0738 48.0791C41.5545 46.5209 42.7773 45.1871 44.3142 44.5449C44.629 44.4133 45.4431 44.2423 46.123 44.1648C47.5517 44.0019 48.1005 43.7558 49.1666 42.8002C50.7635 41.3689 53.237 40.3883 55.2505 40.3883H56.1518L56.8026 39.293C59.8235 34.2078 60.4364 27.7901 58.4339 22.2124C56.4543 16.6989 51.842 12.1044 46.2718 10.0974C43.4048 9.06443 39.3654 8.67377 36.4346 9.14627ZM38.2446 13.9459V16.4642H39.5038H40.7629V13.9459V11.4276H39.5038H38.2446V13.9459ZM38.2446 24.2509V29.5194L40.784 32.7109C42.1806 34.4663 43.379 35.9642 43.4472 36.0394C43.5545 36.1583 45.3383 34.8609 45.4456 34.5861C45.4673 34.5303 44.4227 33.1585 43.124 31.5373L40.7629 28.5899V23.7862V18.9825H39.5038H38.2446V24.2509ZM21.8755 29.0558V30.315H24.3938H26.9122V29.0558V27.7967H24.3938H21.8755V29.0558ZM52.0954 29.0558V30.315H54.6137H57.132V29.0558V27.7967H54.6137H52.0954V29.0558ZM38.2446 44.1658V46.6841H39.5038H40.7629V44.1658V41.6474H39.5038H38.2446V44.1658ZM20.459 43.015C18.982 43.1265 16.2441 43.5607 15.1414 43.8584C13.712 44.2441 11.7098 45.2431 11.1207 45.8644C9.86799 47.1854 10.9266 49.2024 12.8725 49.2024C13.8332 49.2024 14.1194 49.4094 14.571 50.4309C15.2484 51.9633 16.2732 52.7517 17.827 52.9357C18.3691 52.9999 18.7551 53.1505 18.9968 53.3921C19.3539 53.7492 19.3572 53.7895 19.3572 57.8445C19.3572 62.182 19.4137 62.5701 20.0902 62.8785C20.6758 63.1453 20.9148 63.0938 21.4154 62.5931L21.8755 62.1331V58.5723V55.0117L22.2619 54.6255C22.5054 54.3818 22.8281 54.2391 23.1347 54.2391C23.6967 54.2391 24.3938 54.8409 24.3938 55.3262C24.3938 56.0833 25.0332 56.7574 25.7512 56.7574C25.8836 56.7574 26.199 56.5504 26.4521 56.2973L26.9122 55.8372V53.6153C26.9122 51.7075 26.9564 51.3066 27.2255 50.7792C27.7095 49.8303 28.503 49.3096 29.564 49.2441C30.6697 49.1761 31.4938 49.6027 32.1531 50.5843C32.899 51.6951 33.7982 51.9834 34.7349 51.4122C35.9108 50.6953 36.0227 49.2196 35.0051 47.8474C34.5025 47.1695 33.6693 46.8166 32.228 46.6713C30.7133 46.5187 29.6692 46.0506 28.4074 44.9584C26.3 43.1342 24.5497 42.7062 20.459 43.015ZM53.8685 43.1375C52.6361 43.4869 51.6007 44.0628 50.5754 44.9691C49.3584 46.0448 48.3039 46.5177 46.7795 46.6713C45.3383 46.8166 44.505 47.1695 44.0024 47.8474C42.9849 49.2196 43.0968 50.6953 44.2727 51.4122C45.2094 51.9834 46.1086 51.6951 46.8544 50.5843C48.1371 48.6747 50.7613 48.7785 51.782 50.7792C52.0512 51.3066 52.0954 51.7075 52.0954 53.6153V55.8372L52.5555 56.2973C52.8086 56.5504 53.124 56.7574 53.2563 56.7574C53.9744 56.7574 54.6137 56.0833 54.6137 55.3262C54.6137 54.8409 55.3108 54.2391 55.8729 54.2391C56.1795 54.2391 56.5021 54.3818 56.7456 54.6255L57.132 55.0117V58.5723V62.1331L57.5921 62.5931C58.0928 63.0938 58.3317 63.1453 58.9174 62.8785C59.5939 62.5701 59.6504 62.182 59.6504 57.8445C59.6504 53.7895 59.6537 53.7492 60.0108 53.3921C60.2524 53.1505 60.6385 52.9999 61.1806 52.9357C62.7344 52.7517 63.7592 51.9633 64.4366 50.4309C64.8882 49.4094 65.1743 49.2024 66.1351 49.2024C68.0668 49.2024 69.143 47.1802 67.901 45.884C67.2982 45.2548 65.2845 44.2413 63.8911 43.8658C61.0123 43.0898 55.4591 42.6864 53.8685 43.1375ZM29.5355 51.8257C29.4777 51.8833 29.4305 52.8491 29.4305 53.9716C29.4305 56.527 29.2725 57.0824 28.2554 58.1039C27.3412 59.022 26.4272 59.3599 25.1819 59.2403L24.3938 59.1646V60.7365C24.3938 62.8031 24.1966 63.4176 23.2187 64.3997C22.2939 65.3287 21.3684 65.6672 20.1489 65.5227C19.2165 65.4122 18.6686 65.1428 17.9562 64.4439C16.916 63.4235 16.8461 63.0839 16.8423 59.0207L16.8389 55.3818L16.1254 55.182C15.733 55.0722 15.015 54.7042 14.5297 54.3642L13.6474 53.7461L13.7412 54.3467C14.5118 59.285 14.4661 64.5928 13.6112 69.4574L13.5229 69.9594L15.2202 70.5071C20.4681 72.2008 25.7721 72.2001 31.0491 70.5048L32.7465 69.9594L32.6582 69.4574C31.9675 65.5284 31.7835 61.0031 32.1674 57.387C32.3099 56.0452 32.4655 54.7556 32.5134 54.5213C32.5889 54.1516 32.5297 54.0656 32.0664 53.872C31.382 53.586 30.4247 52.7458 30.1266 52.1696C29.895 51.7214 29.7335 51.6276 29.5355 51.8257ZM37.4447 52.3048C37.2354 52.6261 36.7621 53.1184 36.3929 53.399L35.7217 53.9092L36.3142 54.0304C36.6401 54.0971 38.0754 54.1516 39.5038 54.1516C40.9321 54.1516 42.3674 54.0971 42.6934 54.0304L43.2858 53.9092L42.6147 53.399C42.2454 53.1184 41.7722 52.6261 41.5628 52.3048L41.1824 51.7207H39.5038H37.8252L37.4447 52.3048ZM48.7418 52.3325C48.2852 53.0227 47.5264 53.6567 46.8489 53.9142C46.472 54.0576 46.418 54.1489 46.4929 54.5153C46.5414 54.753 46.6977 56.0452 46.8401 57.387C47.224 61.0031 47.04 65.5284 46.3494 69.4574L46.2611 69.9594L48.0091 70.5244C50.5802 71.3556 52.9689 71.7244 55.7942 71.7261C59.0652 71.7282 61.0488 71.4164 64.0225 70.4327L65.4828 69.9496L65.3955 69.4526C64.7031 65.51 64.5211 60.9919 64.9097 57.387C65.0544 56.0452 65.2149 54.6771 65.2664 54.3467L65.3602 53.7461L64.4778 54.3642C63.9926 54.7042 63.2745 55.0722 62.8822 55.182L62.1687 55.3818L62.1677 58.8633C62.1673 60.9153 62.0955 62.6035 61.9932 62.9745C61.7595 63.821 60.4181 65.1623 59.5717 65.396C58.0692 65.8108 56.8922 65.4997 55.7888 64.3964C54.8092 63.4168 54.6137 62.8051 54.6137 60.7208V59.1331L53.8304 59.226C52.755 59.3533 51.7564 59.0391 50.9332 58.3147C49.8187 57.3335 49.6676 56.872 49.5771 54.173C49.5269 52.6761 49.4359 51.8042 49.3259 51.7678C49.231 51.7363 48.9681 51.9905 48.7418 52.3325ZM8.12342 55.7293C7.23287 56.0467 6.42796 56.7635 5.97922 57.6385C5.6446 58.291 5.58731 58.6096 5.59943 59.7465C5.62571 62.2163 6.58441 64.4422 8.41727 66.2892C9.65629 67.5379 10.979 68.4031 11.172 68.0909C11.2372 67.9853 11.3381 67.4991 11.3961 67.0107C11.4925 66.1983 11.4706 66.1022 11.1404 65.8868C9.40572 64.7553 8.22163 62.7952 8.07132 60.8067C7.98869 59.7139 8.01969 59.5253 8.41538 58.7166C8.90583 57.7139 9.8694 56.9758 10.9036 56.8104C11.341 56.7405 11.4808 56.6526 11.4174 56.487C11.3694 56.3619 11.33 56.1972 11.33 56.121C11.33 55.9358 9.82234 55.4965 9.2159 55.5051C8.95037 55.5089 8.45867 55.6098 8.12342 55.7293ZM68.4251 55.7408C68.0139 55.8723 67.6775 56.0428 67.6775 56.1196C67.6775 56.1966 67.6382 56.3619 67.5902 56.487C67.5267 56.6526 67.6665 56.7405 68.1039 56.8104C69.1382 56.9758 70.1017 57.7139 70.5922 58.7166C70.9879 59.5253 71.0189 59.7139 70.9362 60.8067C70.7859 62.7952 69.6018 64.7553 67.8672 65.8868C67.537 66.1022 67.5151 66.1983 67.6114 67.0107C67.7658 68.3111 67.8263 68.3565 68.7209 67.8416C70.0572 67.0728 71.6612 65.305 72.3912 63.7969C73.3878 61.7378 73.7336 59.5019 73.2619 58.1651C72.5429 56.1272 70.4683 55.0873 68.4251 55.7408ZM10.8578 59.5905C10.6847 59.7636 10.5431 60.0695 10.5431 60.2701C10.5431 60.9076 10.9964 62.1708 11.4005 62.6597L11.7909 63.1319L11.7943 61.5579C11.7995 59.2614 11.602 58.8463 10.8578 59.5905ZM67.3045 59.6298C67.2524 59.8247 67.2112 60.6923 67.2132 61.5579L67.2167 63.1319L67.607 62.6597C68.0112 62.1708 68.4645 60.9076 68.4645 60.2701C68.4645 59.8685 67.9596 59.2757 67.6172 59.2757C67.4975 59.2757 67.3568 59.435 67.3045 59.6298ZM13.1179 72.8917C12.9378 73.3607 13.2452 74.2862 13.7481 74.7891C14.1126 75.1536 14.6671 75.4262 15.7481 75.7726C18.4109 76.6255 19.7447 76.8135 23.1347 76.8135C26.5247 76.8135 27.8584 76.6255 30.5212 75.7726C31.6022 75.4262 32.1567 75.1536 32.5212 74.7891C33.2766 74.0337 33.4645 72.4815 32.7732 72.7083C28.9296 73.9693 26.9979 74.2909 23.2134 74.2997C19.5091 74.3082 17.1725 73.955 14.326 72.9562C13.2901 72.5926 13.2337 72.5896 13.1179 72.8917ZM45.8561 72.8917C45.676 73.3607 45.9834 74.2862 46.4863 74.7891C46.8508 75.1536 47.4053 75.4262 48.4863 75.7726C51.1491 76.6255 52.4829 76.8135 55.8729 76.8135C59.2629 76.8135 60.5966 76.6255 63.2594 75.7726C64.3404 75.4262 64.8949 75.1536 65.2595 74.7891C66.0148 74.0337 66.2027 72.4815 65.5115 72.7083C61.6679 73.9693 59.7361 74.2909 55.9516 74.2997C52.2473 74.3082 49.9108 73.955 47.0643 72.9562C46.0283 72.5926 45.9719 72.5896 45.8561 72.8917Z" fill="white"/>
</svg>

<svg xmlns="http://www.w3.org/2000/svg" width="81" height="80" fill="none" viewBox="0 0 81 80"><path fill="#fff" fill-rule="evenodd" d="M36.199 1.515q-7.85 1.092-13.766 5.738c-8.756 6.875-12.56 18.224-9.701 28.932.412 1.544 1.296 3.993 1.744 4.83.131.245-.002.333-1.065.707-2.392.84-4.264 2.144-4.965 3.46-.27.507-.34.909-.34 1.974-.002 1.208.045 1.423.486 2.204.42.746 1.006 1.325 1.99 1.967.138.091.276.49.325.945l.084.787H9.39c-1.471 0-1.687.04-2.653.498-1.464.694-2.375 1.585-3.082 3.02-.588 1.19-.588 1.192-.576 3.164.011 1.788.06 2.113.513 3.445.558 1.636 1.017 2.504 2.03 3.838 1.152 1.517 3.133 3.08 4.733 3.732q.518.211.432.439c-.048.124-.132.81-.187 1.525-.139 1.813.172 2.709 1.345 3.875.705.7 1.115.958 2.06 1.295 3.078 1.099 5.655 1.53 9.13 1.53 3.474 0 6.051-.431 9.129-1.53 2.063-.736 3.462-2.498 3.462-4.359 0-.352-.255-2.411-.567-4.576-.474-3.283-.572-4.416-.59-6.846-.013-1.602.037-3.535.11-4.297l.133-1.386 1.126.127c.62.069 2.224.126 3.566.126s2.946-.057 3.566-.126l1.126-.127.133 1.386c.073.762.123 2.695.111 4.297-.018 2.437-.114 3.553-.59 6.846-.313 2.165-.569 4.224-.569 4.576 0 1.861 1.4 3.623 3.463 4.36 3.078 1.097 5.654 1.53 9.129 1.53s6.051-.433 9.129-1.53c.945-.338 1.355-.596 2.06-1.296 1.173-1.166 1.484-2.062 1.345-3.875-.055-.714-.138-1.399-.185-1.521q-.086-.222.586-.525c4.11-1.849 6.93-6.02 7.163-10.592.074-1.448.04-1.807-.258-2.682-.99-2.91-3.48-4.583-6.508-4.376-1.215.084-1.24.078-1.15-.255.05-.187.091-.558.092-.825.002-.406.127-.565.765-.979a4.56 4.56 0 0 0 1.82-5.275c-.523-1.535-2.458-3.034-5.111-3.962l-1.192-.416.672-1.682c.805-2.017 1.37-3.929 1.74-5.894.384-2.041.384-7.319 0-9.36-1.315-6.983-4.953-13.003-10.415-17.237-3.37-2.612-7.144-4.337-11.481-5.249-1.533-.322-2.463-.41-4.812-.458-1.601-.032-3.372.005-3.934.083m.578 2.524c-8.593.998-15.933 6.126-19.786 13.82-3.378 6.75-3.503 14.887-.332 21.654l.603 1.287 1.244-.152c.685-.084 1.267-.169 1.294-.19s-.23-.593-.572-1.273c-.816-1.624-1.493-3.568-1.945-5.583-.485-2.17-.527-6.7-.08-8.796.95-4.46 2.919-8.251 5.89-11.346 2.44-2.542 4.83-4.171 7.99-5.445 2.853-1.15 5.308-1.623 8.445-1.623 5.89-.002 11.34 2.19 15.593 6.273 2.761 2.65 4.691 5.67 5.852 9.16.945 2.84 1.118 3.97 1.109 7.23-.007 2.39-.071 3.2-.356 4.516-.423 1.96-1.12 3.971-1.946 5.614-.342.68-.6 1.253-.572 1.273.027.021.609.106 1.293.19l1.244.152.594-1.268c3.178-6.79 3.06-14.89-.318-21.648-2.504-5.009-6.33-8.842-11.321-11.34-4.23-2.118-9.341-3.038-13.923-2.505m-.342 5.107c-7.22 1.164-13.422 6.273-15.861 13.066-1.987 5.532-1.4 11.885 1.563 16.957l.713 1.22h.904c2.017 0 4.49.98 6.087 2.411 1.066.956 1.615 1.202 3.044 1.365.68.077 1.494.248 1.808.38 1.537.642 2.76 1.976 3.24 3.534.261.845.306.894.923 1.028.38.082.916.082 1.296 0 .617-.134.661-.183.922-1.028.48-1.558 1.703-2.892 3.24-3.534.315-.132 1.13-.303 1.809-.38 1.429-.163 1.977-.41 3.044-1.365 1.596-1.431 4.07-2.412 6.084-2.412h.9l.652-1.095c3.02-5.085 3.633-11.503 1.63-17.08-1.979-5.514-6.591-10.109-12.161-12.116-2.867-1.033-6.907-1.423-9.837-.95m1.81 4.8v2.518h2.518v-5.036h-2.518zm0 10.305v5.268l2.539 3.192a417 417 0 0 0 2.663 3.328c.107.12 1.891-1.178 1.999-1.453.021-.056-1.023-1.428-2.322-3.049l-2.361-2.947v-9.607h-2.518zm-16.37 4.805v1.259h5.037v-2.518h-5.036zm30.22 0v1.259h5.037v-2.518h-5.037zm-13.85 15.11v2.518h2.518v-5.037h-2.518zm-17.786-1.151c-1.477.111-4.215.546-5.318.843-1.429.386-3.431 1.385-4.02 2.006-1.253 1.321-.194 3.338 1.752 3.338.96 0 1.246.207 1.698 1.229.677 1.532 1.702 2.32 3.256 2.505.542.064.928.215 1.17.456.357.357.36.397.36 4.452 0 4.338.057 4.726.733 5.035.586.266.825.215 1.325-.286l.46-.46v-7.121l.387-.386c.243-.244.566-.387.873-.387.562 0 1.259.602 1.259 1.087 0 .757.64 1.431 1.357 1.431.133 0 .448-.207.701-.46l.46-.46v-2.222c0-1.907.044-2.308.314-2.836.483-.949 1.277-1.47 2.338-1.535 1.106-.068 1.93.359 2.59 1.34.745 1.111 1.644 1.4 2.58.828 1.177-.717 1.289-2.192.271-3.565-.503-.678-1.336-1.03-2.777-1.176-1.515-.152-2.559-.62-3.82-1.713-2.108-1.824-3.858-2.252-7.949-1.943m33.41.123c-1.233.349-2.268.925-3.294 1.831-1.217 1.076-2.271 1.549-3.796 1.702-1.44.146-2.274.498-2.777 1.176-1.017 1.373-.905 2.848.27 3.565.937.571 1.837.283 2.582-.828 1.283-1.91 3.907-1.806 4.928.195.27.528.313.928.313 2.836v2.222l.46.46c.254.253.569.46.701.46.718 0 1.358-.674 1.358-1.43 0-.486.697-1.088 1.259-1.088.306 0 .63.143.873.387l.386.386v7.121l.46.46c.5.5.74.552 1.325.285.677-.308.733-.696.733-5.034 0-4.055.004-4.095.36-4.452.242-.242.629-.392 1.17-.456 1.554-.184 2.58-.973 3.257-2.505.451-1.022.737-1.229 1.698-1.229 1.932 0 3.008-2.022 1.766-3.318-.603-.63-2.617-1.643-4.01-2.018-2.879-.776-8.432-1.18-10.022-.728m-24.333 8.688c-.058.057-.106 1.023-.106 2.146 0 2.555-.157 3.11-1.175 4.132-.914.918-1.828 1.256-3.073 1.136l-.788-.075v1.572c0 2.066-.197 2.68-1.175 3.663-.925.929-1.85 1.267-3.07 1.123-.933-.11-1.48-.38-2.193-1.08-1.04-1.02-1.11-1.36-1.114-5.422l-.003-3.64-.714-.199c-.392-.11-1.11-.478-1.595-.818l-.883-.618.094.6c.77 4.939.725 10.247-.13 15.111l-.088.502 1.697.548c5.248 1.694 10.552 1.693 15.83-.002l1.696-.546-.088-.502c-.69-3.929-.875-8.454-.49-12.07.142-1.342.297-2.631.345-2.866.076-.37.017-.455-.447-.649-.684-.286-1.641-1.126-1.94-1.702-.231-.449-.393-.542-.59-.344m7.909.479c-.21.321-.683.813-1.052 1.094l-.671.51.592.121c.326.067 1.761.122 3.19.122 1.428 0 2.863-.055 3.19-.122l.592-.12-.671-.511c-.37-.28-.843-.773-1.052-1.094l-.38-.584h-3.358zm11.297.028c-.457.69-1.216 1.324-1.893 1.581-.377.144-.431.235-.356.601.048.238.205 1.53.347 2.872.384 3.616.2 8.141-.49 12.07l-.089.502 1.748.565c2.571.832 4.96 1.2 7.785 1.202 3.271.002 5.255-.31 8.228-1.293l1.46-.483-.087-.497c-.692-3.943-.874-8.461-.485-12.066.144-1.342.305-2.71.356-3.04l.094-.6-.882.617c-.485.34-1.203.708-1.596.818l-.713.2-.001 3.481c0 2.052-.072 3.74-.175 4.111-.233.847-1.575 2.188-2.421 2.422-1.503.415-2.68.104-3.783-1-.98-.98-1.175-1.59-1.175-3.675v-1.588l-.784.093c-1.075.127-2.074-.187-2.897-.911-1.114-.981-1.265-1.443-1.356-4.142-.05-1.497-.141-2.369-.251-2.405-.095-.032-.358.222-.584.565M8.123 55.729c-.89.318-1.695 1.035-2.144 1.91-.334.652-.392.97-.38 2.107.027 2.47.985 4.696 2.818 6.543 1.24 1.249 2.562 2.114 2.755 1.802.065-.106.166-.592.224-1.08.096-.813.075-.909-.256-1.124-1.734-1.132-2.918-3.092-3.069-5.08-.082-1.093-.051-1.282.344-2.09.49-1.003 1.454-1.741 2.489-1.907.437-.07.577-.157.513-.323a1.3 1.3 0 0 1-.087-.366c0-.185-1.508-.625-2.114-.616-.266.004-.757.105-1.093.224m60.302.012c-.411.131-.748.302-.748.379s-.039.242-.087.367c-.063.166.076.253.514.323 1.034.166 1.998.904 2.488 1.907.396.808.427.997.344 2.09-.15 1.988-1.334 3.948-3.069 5.08-.33.215-.352.311-.256 1.124.155 1.3.215 1.346 1.11.83 1.336-.768 2.94-2.536 3.67-4.044.997-2.06 1.343-4.295.87-5.632-.718-2.038-2.793-3.078-4.836-2.424m-57.567 3.85c-.173.173-.315.478-.315.68 0 .637.453 1.9.857 2.389l.39.472.004-1.574c.005-2.297-.192-2.712-.936-1.968m56.447.039c-.053.195-.094 1.062-.092 1.928l.004 1.574.39-.472c.404-.49.858-1.752.858-2.39 0-.402-.505-.994-.848-.994-.12 0-.26.159-.312.354M13.118 72.892c-.18.469.127 1.394.63 1.897.365.365.92.637 2 .984 2.663.853 3.997 1.04 7.387 1.04s4.723-.187 7.386-1.04c1.081-.347 1.636-.62 2-.984.756-.755.944-2.308.252-2.08-3.843 1.26-5.775 1.582-9.56 1.59-3.704.01-6.04-.344-8.887-1.343-1.036-.363-1.092-.366-1.208-.064m32.738 0c-.18.469.127 1.394.63 1.897.365.365.92.637 2 .984 2.663.853 3.997 1.04 7.387 1.04s4.724-.187 7.386-1.04c1.081-.347 1.636-.62 2-.984.756-.755.944-2.308.252-2.08-3.843 1.26-5.775 1.582-9.56 1.59-3.704.01-6.04-.344-8.887-1.343-1.036-.363-1.092-.366-1.208-.064" clip-rule="evenodd"/></svg>
